X:12290
T:Little Old Log Cabin in the Lane
S:Recording of Emerson Hill Square Dance. George Hodgson calling with
S:Lou Heath (fiddle), Walter Heath (piano), Frenchy [Wilfred French] (drums),
S:Royce Riddle (banjo), Bob Boynton (electric bass), Bob Messer (saxophone).
N:As played by Lou Heath. West Hopkinton, NH.
N:I've also included it in D as it's often played in that key.
M:2/4
L:1/8
R:Reel
G:Tunes with Associated Dances ~ Singing Squares ~ LRB
H:From the Lamprey River Band Tunebook, a part of the NH Country Dance website.
H:Look for more tunes (New England, Canadian, Swedish) plus resources for 
H:abc notation and New England traditional music and dance; URL below.
U: s = !slide!       % To preserve font, staff layout & other formatting,
U: t = !trill!       % use the file header at the URL below. There are
F:Tunes Home Page - http://nhcountrydance.com/fiddle/the-tunes.html
F:File Header & instructions - http://nhcountrydance.com/fiddle/headers.html
K:F
"@-170,0Introduction" FG |\
"F" Ac AF | "C" GB AG | "F" F2 F>F | "F" Fz  ||
FA |\
"F" c2 c>d | "F" cA GF | "Bb" GF FD | "F" C2 FG |\
"F" A2 A>A | "F" AA GF | "C" G4 -   | "C" G2 FA |
"F" c2 c>d | "F" cA GF | "Bb" GF FD | "F" C2 FG |\
"F" Ac AF  | "C" GB AG | "F" F4 -   | "F" F2 GA ||
"Bb" B2 B>B | "Bb" B<d d>d | "F" dc cA | "F" c3A/G/ |\
"F" FF FF  | "F" dc cA | "C (G) " G4 - | "C" G2 AB | 
"F" cc c>c | "F" cA GF | "Bb" GF FD | "F" C2 FG |\
"F" Ac AF  | "C" GB AG | "F" F4 -   | "F" F2  |]

